!!!SOCIAL_FUNCTION:	bird dance songs
!!!PDT:	1956
!!!OTL: No_142_Screech_Owl_Dance_Song_(b).krn
!!!LANG: Non-Tone
!!!LING_GROUP: Muskogean
!!!REG: Florida
**kern
*staff1
=1-
=
*clefF4
*k[f#c#g#]
*M5/4
4c#\
8c#\L
8B\J
4B\
4A\
8.c#\L
16B\Jk
=2||
*M4/4
4..B\
16A\
16A\LK
[8.F#\J
4F#\]
=3||
*M3/4
8A\L
8A\J
4E\
8E\
8r
=4||
*M5/4
4B\
8B\L
8A\J
4F#\
4E\
4F#\
=5||
*M2/4
4.F#\
8E\
=6
8E/L
[8C#/J
4C#/]
=7
8E\L
8E\J
4BB/
=8
4BB/
8.r
16BB/
=9
2E\
=10
8F#\L
8E\J
4E\
=11||
*M3/4
2E\
8.r
16BB/
=12||
*M2/4
2E\
=13||
*M3/4
8F#\L
8E\J
4E\
8E\
8r
==:|!
*-
